X: 504
T: Spanish Jig
M: 6/8
L: 1/8
R: Jig
K: G
"G"ABcd2d| cBAG3| ABcd2e| c2dB2G| ABcd2d| cBA GAB| c2B ABc| 
BAB G3:||:"G"Bcd"C"e2e| edc"G"B2G| "C"e2d c2B| "D"ABc"G"d3 |
Bcd"C"e2e| edc"G"B2G| "C"e2dc2B| "D"ABA"G"G3:||:"D"def"G"g2B| BAG"D"A2G| 
"D"def"G"g2B| "D"AGA"G"B2G| "D/F#"def"Em7"g2B| BAG"D"A2G| def"C"g2B| "D"AGA"G"G3:|

%%newpage
%%textfont * 14
%%begintext justify
%%48 Bar Jigs
%%endtext
